;FLAVOR:Marlin
;TIME:4320
;Filament used: 2.78379m
;Layer height: 0.2
;MINX:76.78
;MINY:76.78
;MINZ:0.2
;MAXX:143.22
;MAXY:143.22
;MAXZ:28.8
;Generated with Cura_SteamEngine master
M140 S60
M105
M190 S60
M104 S200
M105
M109 S200
M82 ;absolute extrusion mode
M201 X500.00 Y500.00 Z100.00 E5000.00 ;Setup machine max acceleration
M203 X500.00 Y500.00 Z10.00 E50.00 ;Setup machine max feedrate
M204 P500.00 R1000.00 T500.00 ;Setup Print/Retract/Travel acceleration
M205 X8.00 Y8.00 Z0.40 E5.00 ;Setup Jerk
M220 S100 ;Reset Feedrate
M221 S100 ;Reset Flowrate

G28 ;Home

G92 E0 ;Reset Extruder
G1 Z2.0 F3000 ;Move Z Axis up
G1 X10.1 Y20 Z0.28 F5000.0 ;Move to start position
G1 X10.1 Y200.0 Z0.28 F1500.0 E15 ;Draw the first line
G1 X10.4 Y200.0 Z0.28 F5000.0 ;Move to side a little
G1 X10.4 Y20 Z0.28 F1500.0 E30 ;Draw the second line
G92 E0 ;Reset Extruder
G1 Z2.0 F3000 ;Move Z Axis up

G92 E0
G92 E0
G1 F2700 E-5
;LAYER_COUNT:144
;LAYER:0
M107
G0 F6000 X86.249 Y86.769 Z0.2
;TYPE:SKIRT
G1 F2700 E0
G1 F1200 X86.909 Y86.124 E0.03376
G1 X87.392 Y85.717 E0.05687
G1 X88.134 Y85.128 E0.09153
G1 X88.269 Y85.023 E0.09779
G1 X91.605 Y82.461 E0.25168
G1 X91.734 Y82.363 E0.25761
G1 X92.328 Y81.921 E0.2847
G1 X93.092 Y81.402 E0.31849
G1 X93.898 Y80.952 E0.35226
G1 X94.477 Y80.682 E0.37563
G1 X95.571 Y80.211 E0.41921
G1 X95.705 Y80.154 E0.42454
G1 X99.433 Y78.609 E0.57218
G1 X99.577 Y78.551 E0.57786
G1 X100.191 Y78.307 E0.60203
G1 X101.063 Y78.003 E0.63582
G1 X101.958 Y77.776 E0.6696
G1 X102.584 Y77.665 E0.69286
G1 X103.704 Y77.501 E0.73427
G1 X103.852 Y77.481 E0.73974
G1 X107.918 Y76.944 E0.88979
G1 X108.068 Y76.925 E0.89532
G1 X108.722 Y76.848 E0.91941
G1 X109.642 Y76.78 E0.95316
G1 X110.565 Y76.792 E0.98694
G1 X111.176 Y76.844 E1.00937
G1 X112.149 Y76.955 E1.0452
G1 X112.33 Y76.977 E1.05187
G1 X116.553 Y77.532 E1.2077
G1 X116.708 Y77.553 E1.21343
G1 X117.35 Y77.647 E1.23716
G1 X118.257 Y77.821 E1.27095
G1 X119.146 Y78.072 E1.30475
G1 X119.753 Y78.293 E1.32838
G1 X120.912 Y78.755 E1.37403
G1 X121.039 Y78.806 E1.37904
G1 X124.673 Y80.309 E1.52292
G1 X124.809 Y80.367 E1.52833
G1 X125.465 Y80.649 E1.55445
G1 X126.297 Y81.05 E1.58824
G1 X127.09 Y81.521 E1.62198
G1 X127.604 Y81.879 E1.6449
G1 X128.389 Y82.461 E1.68065
G1 X128.526 Y82.564 E1.68693
G1 X131.903 Y85.153 E1.84261
G1 X132.011 Y85.237 E1.84761
G1 X132.528 Y85.644 E1.87169
G1 X133.228 Y86.246 E1.90547
G1 X133.873 Y86.906 E1.93923
G1 X134.283 Y87.392 E1.96249
G1 X134.872 Y88.134 E1.99715
G1 X134.977 Y88.269 E2.00341
G1 X137.539 Y91.605 E2.1573
G1 X137.635 Y91.732 E2.16312
G1 X138.078 Y92.327 E2.19026
G1 X138.597 Y93.091 E2.22406
G1 X139.048 Y93.896 E2.25781
G1 X139.305 Y94.445 E2.27999
G1 X139.686 Y95.322 E2.31498
G1 X139.757 Y95.489 E2.32161
G1 X141.388 Y99.425 E2.47749
G1 X141.447 Y99.572 E2.48329
G1 X141.694 Y100.194 E2.50777
G1 X141.998 Y101.066 E2.54156
G1 X142.224 Y101.961 E2.57533
G1 X142.335 Y102.584 E2.59848
G1 X142.499 Y103.704 E2.6399
G1 X142.519 Y103.852 E2.64536
G1 X143.056 Y107.918 E2.79541
G1 X143.074 Y108.064 E2.80079
G1 X143.151 Y108.716 E2.82481
G1 X143.22 Y109.636 E2.85857
G1 X143.208 Y110.56 E2.89238
G1 X143.156 Y111.173 E2.91488
G1 X143.045 Y112.147 E2.95075
G1 X143.023 Y112.331 E2.95753
G1 X142.466 Y116.563 E3.1137
G1 X142.446 Y116.705 E3.11894
G1 X142.354 Y117.338 E3.14235
G1 X142.182 Y118.245 E3.17612
G1 X141.932 Y119.134 E3.20991
G1 X141.708 Y119.749 E3.23385
G1 X141.246 Y120.909 E3.27954
G1 X141.194 Y121.039 E3.28466
G1 X139.691 Y124.673 E3.42854
G1 X139.633 Y124.809 E3.43394
G1 X139.351 Y125.465 E3.46007
G1 X138.95 Y126.297 E3.49386
G1 X138.479 Y127.09 E3.5276
G1 X138.1 Y127.633 E3.55183
G1 X137.372 Y128.608 E3.59635
G1 X137.29 Y128.715 E3.60128
G1 X134.83 Y131.924 E3.74921
G1 X134.743 Y132.036 E3.7544
G1 X134.353 Y132.531 E3.77746
G1 X133.751 Y133.231 E3.81124
G1 X133.091 Y133.876 E3.845
G1 X132.608 Y134.283 E3.86811
G1 X131.866 Y134.872 E3.90277
G1 X131.731 Y134.977 E3.90903
G1 X128.395 Y137.539 E4.06292
G1 X128.266 Y137.637 E4.06884
G1 X127.672 Y138.079 E4.09593
G1 X126.908 Y138.598 E4.12972
G1 X126.102 Y139.048 E4.1635
G1 X125.523 Y139.318 E4.18687
G1 X124.429 Y139.789 E4.23045
G1 X124.295 Y139.846 E4.23578
G1 X120.584 Y141.384 E4.38275
G1 X120.443 Y141.441 E4.38831
G1 X119.812 Y141.692 E4.41315
G1 X118.94 Y141.996 E4.44694
G1 X118.045 Y142.223 E4.48072
G1 X117.416 Y142.335 E4.5041
G1 X116.296 Y142.499 E4.54551
G1 X116.148 Y142.519 E4.55097
G1 X112.082 Y143.056 E4.70103
G1 X111.932 Y143.075 E4.70656
G1 X111.278 Y143.152 E4.73065
G1 X110.358 Y143.22 E4.7644
G1 X109.435 Y143.208 E4.79817
G1 X108.824 Y143.156 E4.82061
G1 X107.851 Y143.045 E4.85644
G1 X107.67 Y143.023 E4.86311
G1 X103.447 Y142.468 E5.01894
G1 X103.292 Y142.447 E5.02466
G1 X102.65 Y142.353 E5.0484
G1 X101.743 Y142.179 E5.08219
G1 X100.854 Y141.928 E5.11599
G1 X100.247 Y141.707 E5.13962
G1 X99.088 Y141.245 E5.18527
G1 X98.961 Y141.194 E5.19028
G1 X95.327 Y139.691 E5.33415
G1 X95.191 Y139.633 E5.33956
G1 X94.535 Y139.351 E5.36569
G1 X93.703 Y138.95 E5.39948
G1 X92.91 Y138.479 E5.43322
G1 X92.367 Y138.1 E5.45745
G1 X91.392 Y137.372 E5.50197
G1 X91.285 Y137.29 E5.5069
G1 X88.076 Y134.83 E5.65483
G1 X87.964 Y134.743 E5.66002
G1 X87.469 Y134.353 E5.68308
G1 X86.769 Y133.751 E5.71685
G1 X86.124 Y133.091 E5.75062
G1 X85.717 Y132.608 E5.77373
G1 X85.128 Y131.866 E5.80839
G1 X85.023 Y131.731 E5.81464
G1 X82.461 Y128.395 E5.96853
G1 X82.365 Y128.268 E5.97436
G1 X81.922 Y127.673 E6.0015
G1 X81.403 Y126.909 E6.03529
G1 X80.952 Y126.104 E6.06905
G1 X80.679 Y125.518 E6.0927
G1 X80.209 Y124.425 E6.13623
G1 X80.154 Y124.295 E6.14139
G1 X78.616 Y120.584 E6.28836
G1 X78.559 Y120.443 E6.29393
G1 X78.308 Y119.812 E6.31877
G1 X78.004 Y118.94 E6.35256
G1 X77.777 Y118.045 E6.38634
G1 X77.665 Y117.416 E6.40972
G1 X77.501 Y116.296 E6.45113
G1 X77.481 Y116.148 E6.45659
G1 X76.944 Y112.082 E6.60664
G1 X76.926 Y111.936 E6.61203
G1 X76.849 Y111.284 E6.63605
G1 X76.78 Y110.364 E6.6698
G1 X76.792 Y109.44 E6.70361
G1 X76.844 Y108.824 E6.72623
G1 X76.958 Y107.826 E6.76298
G1 X76.98 Y107.645 E6.76965
G1 X77.534 Y103.437 E6.92493
G1 X77.554 Y103.295 E6.93018
G1 X77.646 Y102.662 E6.95358
G1 X77.818 Y101.755 E6.98735
G1 X78.068 Y100.866 E7.02114
G1 X78.292 Y100.251 E7.04509
G1 X78.754 Y99.091 E7.09077
G1 X78.806 Y98.961 E7.09589
G1 X80.309 Y95.327 E7.23977
G1 X80.367 Y95.191 E7.24518
G1 X80.649 Y94.535 E7.2713
G1 X81.05 Y93.703 E7.30509
G1 X81.521 Y92.91 E7.33884
G1 X81.9 Y92.367 E7.36306
G1 X82.628 Y91.392 E7.40758
G1 X82.71 Y91.285 E7.41251
G1 X85.17 Y88.076 E7.56045
G1 X85.257 Y87.964 E7.56564
G1 X85.647 Y87.469 E7.58869
G1 X86.249 Y86.769 E7.62247
G0 F6000 X86.583 Y87.056
G1 F1200 X87.231 Y86.427 E7.65551
G1 X87.666 Y86.061 E7.67631
G1 X88.408 Y85.472 E7.71097
G1 X88.537 Y85.372 E7.71694
G1 X91.873 Y82.81 E7.87083
G1 X91.997 Y82.716 E7.87653
G1 X92.591 Y82.274 E7.90361
G1 X93.339 Y81.767 E7.93667
G1 X94.13 Y81.328 E7.96977
G1 X94.651 Y81.086 E7.99079
G1 X95.745 Y80.615 E8.03437
G1 X95.873 Y80.561 E8.03945
G1 X99.601 Y79.016 E8.18709
G1 X99.74 Y78.959 E8.19259
G1 X100.354 Y78.715 E8.21676
G1 X101.208 Y78.419 E8.24983
G1 X102.085 Y78.199 E8.28291
G1 X102.647 Y78.101 E8.30378
G1 X103.767 Y77.937 E8.34519
G1 X103.91 Y77.917 E8.35048
G1 X107.976 Y77.38 E8.50053
G1 X108.119 Y77.362 E8.5058
G1 X108.773 Y77.285 E8.52989
G1 X109.675 Y77.219 E8.56298
G1 X110.578 Y77.233 E8.59602
G1 X111.126 Y77.281 E8.61615
G1 X112.099 Y77.392 E8.65198
G1 X112.273 Y77.413 E8.65839
G1 X116.496 Y77.968 E8.81422
G1 X116.645 Y77.989 E8.81973
G1 X117.287 Y78.083 E8.84347
G1 X118.174 Y78.253 E8.87651
G1 X119.044 Y78.501 E8.90961
G1 X119.59 Y78.701 E8.93088
G1 X120.749 Y79.163 E8.97653
G1 X120.871 Y79.213 E8.98135
G1 X124.505 Y80.716 E9.12523
G1 X124.635 Y80.771 E9.1304
G1 X125.291 Y81.053 E9.15652
G1 X126.105 Y81.446 E9.18959
G1 X126.881 Y81.91 E9.22267
G1 X127.342 Y82.232 E9.24324
G1 X128.127 Y82.814 E9.27899
G1 X128.258 Y82.913 E9.285
G1 X131.635 Y85.502 E9.44068
G1 X131.739 Y85.583 E9.44551
G1 X132.256 Y85.99 E9.46958
G1 X132.941 Y86.58 E9.50266
G1 X133.571 Y87.228 E9.53572
G1 X133.939 Y87.666 E9.55665
G1 X134.528 Y88.408 E9.59131
G1 X134.628 Y88.537 E9.59728
G1 X137.19 Y91.873 E9.75118
G1 X137.282 Y91.995 E9.75677
G1 X137.725 Y92.59 E9.78391
G1 X138.233 Y93.338 E9.81699
G1 X138.672 Y94.128 E9.85005
G1 X138.902 Y94.621 E9.86996
G1 X139.283 Y95.498 E9.90494
G1 X139.35 Y95.658 E9.91129
G1 X140.981 Y99.594 E10.06716
G1 X141.038 Y99.734 E10.07269
G1 X141.285 Y100.356 E10.09718
G1 X141.582 Y101.21 E10.13026
G1 X141.801 Y102.087 E10.16333
G1 X141.899 Y102.647 E10.18413
G1 X142.063 Y103.767 E10.22554
G1 X142.083 Y103.91 E10.23082
G1 X142.62 Y107.976 E10.38088
G1 X142.637 Y108.115 E10.386
G1 X142.714 Y108.767 E10.41002
G1 X142.781 Y109.669 E10.44311
G1 X142.767 Y110.573 E10.47619
G1 X142.719 Y111.123 E10.49639
G1 X142.608 Y112.097 E10.53225
G1 X142.587 Y112.274 E10.53877
G1 X142.03 Y116.506 E10.69494
G1 X142.011 Y116.642 E10.69997
G1 X141.919 Y117.275 E10.72337
G1 X141.749 Y118.163 E10.75645
G1 X141.502 Y119.032 E10.7895
G1 X141.3 Y119.586 E10.81107
G1 X140.838 Y120.746 E10.85676
G1 X140.787 Y120.871 E10.8617
G1 X139.284 Y124.505 E11.00557
G1 X139.229 Y124.635 E11.01074
G1 X138.947 Y125.291 E11.03686
G1 X138.554 Y126.105 E11.06993
G1 X138.09 Y126.881 E11.10301
G1 X137.747 Y127.37 E11.12486
G1 X137.019 Y128.345 E11.16938
G1 X136.941 Y128.448 E11.17411
G1 X134.481 Y131.657 E11.32204
G1 X134.398 Y131.764 E11.327
G1 X134.008 Y132.259 E11.35005
G1 X133.417 Y132.944 E11.38315
G1 X132.769 Y133.573 E11.41619
G1 X132.334 Y133.939 E11.43699
G1 X131.592 Y134.528 E11.47165
G1 X131.463 Y134.628 E11.47762
G1 X128.127 Y137.19 E11.63151
G1 X128.003 Y137.284 E11.63721
G1 X127.409 Y137.726 E11.6643
G1 X126.661 Y138.233 E11.69736
G1 X125.87 Y138.672 E11.73045
G1 X125.349 Y138.914 E11.75147
G1 X124.255 Y139.385 E11.79505
G1 X124.127 Y139.439 E11.80013
G1 X120.416 Y140.977 E11.9471
G1 X120.28 Y141.032 E11.95247
G1 X119.649 Y141.283 E11.97731
G1 X118.796 Y141.58 E12.01036
G1 X117.919 Y141.8 E12.04344
G1 X117.353 Y141.899 E12.06446
G1 X116.233 Y142.063 E12.10587
G1 X116.09 Y142.083 E12.11116
G1 X112.024 Y142.62 E12.26121
G1 X111.881 Y142.638 E12.26648
G1 X111.227 Y142.715 E12.29057
G1 X110.325 Y142.781 E12.32366
G1 X109.422 Y142.767 E12.3567
G1 X108.874 Y142.719 E12.37683
G1 X107.901 Y142.608 E12.41266
G1 X107.727 Y142.587 E12.41907
G1 X103.504 Y142.032 E12.5749
G1 X103.355 Y142.011 E12.58041
G1 X102.713 Y141.917 E12.60415
G1 X101.826 Y141.747 E12.63719
G1 X100.956 Y141.499 E12.67029
G1 X100.41 Y141.299 E12.69156
G1 X99.251 Y140.837 E12.73721
G1 X99.129 Y140.787 E12.74203
G1 X95.495 Y139.284 E12.88591
G1 X95.365 Y139.229 E12.89107
G1 X94.709 Y138.947 E12.9172
G1 X93.895 Y138.554 E12.95027
G1 X93.119 Y138.09 E12.98335
G1 X92.63 Y137.747 E13.0052
G1 X91.655 Y137.019 E13.04972
G1 X91.552 Y136.941 E13.05445
G1 X88.343 Y134.481 E13.20238
G1 X88.236 Y134.398 E13.20733
G1 X87.741 Y134.008 E13.23039
G1 X87.056 Y133.417 E13.26349
G1 X86.427 Y132.769 E13.29653
G1 X86.061 Y132.334 E13.31733
G1 X85.472 Y131.592 E13.35199
G1 X85.372 Y131.463 E13.35796
G1 X82.81 Y128.127 E13.51185
G1 X82.718 Y128.005 E13.51744
G1 X82.275 Y127.41 E13.54458
G1 X81.767 Y126.662 E13.57766
G1 X81.328 Y125.872 E13.61073
G1 X81.083 Y125.344 E13.63202
G1 X80.613 Y124.251 E13.67555
G1 X80.561 Y124.127 E13.68047
G1 X79.023 Y120.416 E13.82744
G1 X78.968 Y120.28 E13.83281
G1 X78.717 Y119.649 E13.85766
G1 X78.42 Y118.796 E13.8907
G1 X78.2 Y117.919 E13.92378
G1 X78.101 Y117.353 E13.9448
G1 X77.937 Y116.233 E13.98622
G1 X77.917 Y116.09 E13.9915
G1 X77.38 Y112.024 E14.14155
G1 X77.363 Y111.885 E14.14667
G1 X77.286 Y111.233 E14.17069
G1 X77.219 Y110.331 E14.20379
G1 X77.233 Y109.427 E14.23686
G1 X77.281 Y108.874 E14.25717
G1 X77.395 Y107.876 E14.29392
G1 X77.416 Y107.702 E14.30033
G1 X77.97 Y103.494 E14.45562
G1 X77.989 Y103.358 E14.46064
G1 X78.081 Y102.725 E14.48404
G1 X78.251 Y101.837 E14.51712
G1 X78.498 Y100.968 E14.55017
G1 X78.7 Y100.414 E14.57175
G1 X79.162 Y99.254 E14.61743
G1 X79.213 Y99.129 E14.62237
G1 X80.716 Y95.495 E14.76625
G1 X80.771 Y95.365 E14.77141
G1 X81.053 Y94.709 E14.79754
G1 X81.446 Y93.895 E14.83061
G1 X81.91 Y93.119 E14.86369
G1 X82.253 Y92.63 E14.88554
G1 X82.981 Y91.655 E14.93006
G1 X83.059 Y91.552 E14.93478
G1 X85.519 Y88.343 E15.08272
G1 X85.602 Y88.236 E15.08767
G1 X85.992 Y87.741 E15.11073
G1 X86.583 Y87.056 E15.14383
G1 F2700 E10.14383
;MESH:test-dog.stl
G0 F6000 X110.001 Y86.751
G0 X116.018 Y87.544
G0 X121.626 Y89.866
G0 X126.44 Y93.56
G0 X130.134 Y98.377
G0 X132.456 Y103.983
G0 X133.249 Y110.001
G0 X132.456 Y116.018
G0 X132.049 Y116.996
G0 X130.42 Y116.319
;TYPE:WALL-INNER
G1 F2700 E15.14383
G1 F1200 X128.592 Y120.736 E15.31872
G1 X128.089 Y121.39 E15.34891
G1 X125.181 Y125.183 E15.52377
G1 X124.526 Y125.684 E15.55394
G1 X120.739 Y128.591 E15.7286
G1 X119.97 Y128.908 E15.75904
G1 X115.554 Y130.739 E15.93394
G1 X114.737 Y130.845 E15.96408
G1 X110.001 Y131.469 E16.13885
G1 X104.444 Y130.738 E16.34391
G1 X103.681 Y130.42 E16.37415
G1 X99.264 Y128.592 E16.54905
G1 X98.61 Y128.089 E16.57923
G1 X94.817 Y125.181 E16.75409
G1 X94.316 Y124.526 E16.78426
G1 X91.409 Y120.739 E16.95893
G1 X91.092 Y119.97 E16.98936
G1 X89.261 Y115.554 E17.16426
G1 X89.155 Y114.737 E17.1944
G1 X88.531 Y110 E17.36921
G1 X89.262 Y104.444 E17.57423
G1 X89.58 Y103.681 E17.60448
G1 X91.408 Y99.264 E17.77937
G1 X91.911 Y98.61 E17.80956
G1 X94.819 Y94.817 E17.98442
G1 X95.474 Y94.316 E18.01459
G1 X99.261 Y91.409 E18.18926
G1 X100.03 Y91.092 E18.21969
G1 X104.446 Y89.261 E18.39459
G1 X105.263 Y89.155 E18.42473
G1 X109.998 Y88.531 E18.59946
G1 X110.819 Y88.639 E18.62976
G1 X115.556 Y89.263 E18.80456
G1 X116.319 Y89.58 E18.83479
G1 X120.736 Y91.408 E19.00969
G1 X121.39 Y91.911 E19.03987
G1 X125.183 Y94.819 E19.21474
G1 X125.684 Y95.474 E19.24491
G1 X128.591 Y99.261 E19.41957
G1 X128.908 Y100.03 E19.45
G1 X130.739 Y104.446 E19.6249
G1 X130.845 Y105.263 E19.65505
G1 X131.469 Y109.999 E19.82982
G1 X130.738 Y115.556 E20.03488
G1 X130.42 Y116.319 E20.06512
G1 F2700 E15.06512
G0 F6000 X132.049 Y116.996
G0 X132.456 Y116.018
G0 X133.249 Y110.001
G0 X132.456 Y103.983
G0 X130.535 Y99.394
G0 X129.315 Y99.862
G1 F2700 E20.06512
G1 F1200 X131.167 Y104.329 E20.24204
G1 X131.281 Y105.206 E20.27439
G1 X131.913 Y109.999 E20.45127
G1 X131.166 Y115.671 E20.66058
G1 X130.826 Y116.488 E20.69295
G1 X128.976 Y120.959 E20.86998
G1 X128.438 Y121.658 E20.90225
G1 X125.496 Y125.495 E21.07915
G1 X124.793 Y126.033 E21.11154
G1 X120.958 Y128.977 E21.28842
G1 X120.138 Y129.315 E21.32087
G1 X115.671 Y131.167 E21.49779
G1 X114.794 Y131.281 E21.53015
G1 X110.001 Y131.913 E21.70702
G1 X104.329 Y131.166 E21.91633
G1 X103.512 Y130.826 E21.9487
G1 X99.041 Y128.976 E22.12573
G1 X98.342 Y128.438 E22.158
G1 X94.505 Y125.496 E22.3349
G1 X93.967 Y124.793 E22.36729
G1 X91.023 Y120.958 E22.54417
G1 X90.685 Y120.138 E22.57662
G1 X88.833 Y115.671 E22.75354
G1 X88.719 Y114.794 E22.7859
G1 X88.087 Y110 E22.96281
G1 X88.834 Y104.329 E23.17208
G1 X89.174 Y103.512 E23.20446
G1 X91.024 Y99.041 E23.38148
G1 X91.562 Y98.342 E23.41375
G1 X94.504 Y94.505 E23.59065
G1 X95.207 Y93.967 E23.62304
G1 X99.042 Y91.023 E23.79992
G1 X99.862 Y90.685 E23.83237
G1 X104.329 Y88.833 E24.00929
G1 X105.206 Y88.719 E24.04165
G1 X109.999 Y88.087 E24.21852
G1 X110.877 Y88.203 E24.25092
G1 X115.671 Y88.834 E24.42783
G1 X116.488 Y89.174 E24.46021
G1 X120.959 Y91.024 E24.63723
G1 X121.658 Y91.562 E24.6695
G1 X125.495 Y94.504 E24.8464
G1 X126.033 Y95.207 E24.87879
G1 X128.977 Y99.042 E25.05567
G1 X129.315 Y99.862 E25.08812
G1 F2700 E20.08812
G0 F6000 X130.535 Y99.394
G0 X130.134 Y98.377
G0 X126.44 Y93.56
G0 X121.626 Y89.866
G0 X116.996 Y87.951
G0 X116.657 Y88.768
;TYPE:WALL-OUTER
G1 F2700 E25.08812
G1 F1200 X121.18 Y90.639 E25.2672
G1 X121.926 Y91.213 E25.30164
G1 X125.807 Y94.189 E25.48057
G1 X126.382 Y94.94 E25.51517
G1 X129.363 Y98.823 E25.69427
G1 X129.722 Y99.694 E25.72874
G1 X131.595 Y104.212 E25.90768
G1 X131.717 Y105.149 E25.94225
G1 X132.357 Y110 E26.12127
G1 X132.233 Y110.935 E26.15577
G1 X131.595 Y115.786 E26.33478
G1 X131.232 Y116.657 E26.3693
G1 X129.361 Y121.18 E26.54838
